X:1
T: Lady Doune's Reel
C:R. Mackintosh
R:Reel
Q: 232
K:D
M:4/4
L:1/8
|:A|FD D1/2D1/2D FD AD|FD AF GE EA|FD D1/2D1/2D FD AD|Bd Ad FD DA|
FD D1/2D1/2D FD AD|FD AF GE EA|FD D1/2D1/2D FD AD|Bd Ad FD Dg|
fg aa ge ag|fd Be dA Ag|fg ab ge ag|fd ec d1/2d1/2d dg|
fg aa ge ag|fd Be dA A=c|BG dG cA ge|fa eg fd d:|
